src/lib/packages/icons/src/assets/line/map.svg

<svg width="24" height="24" viewBox="0 0 24 24" fill="none" xmlns="http://www.w3.org/2000/svg">
<path d="M20.92 3.00893C20.4 2.68793 19.764 2.65878 19.217 2.93178L15.79 4.64492C15.643 4.71792 15.468 4.72782 15.311 4.66982L9.21301 2.38296C8.66801 2.17796 8.05599 2.20985 7.53699 2.47085L3.76901 4.35488C2.83101 4.82388 2.24899 5.76684 2.24899 6.81484V19.5028C2.24899 20.1138 2.55901 20.6699 3.07901 20.9909C3.59901 21.3119 4.23501 21.341 4.78201 21.068L8.20901 19.3549C8.35601 19.2819 8.53099 19.272 8.68799 19.33L14.786 21.6168C15.023 21.7058 15.273 21.7499 15.523 21.7499C15.545 21.7499 15.566 21.7428 15.588 21.7428C15.593 21.7428 15.596 21.745 15.601 21.745C15.618 21.745 15.632 21.737 15.648 21.735C15.929 21.718 16.207 21.656 16.463 21.528L20.231 19.6439C21.169 19.1749 21.751 18.232 21.751 17.184V4.49599C21.75 3.88599 21.44 3.32993 20.92 3.00893ZM4.112 19.726C4.004 19.779 3.91299 19.743 3.86899 19.715C3.82499 19.688 3.75 19.6238 3.75 19.5028V6.81484C3.75 6.33784 4.01501 5.90992 4.44101 5.69692L7.64999 4.09292V17.9728C7.61299 17.9888 7.57399 17.9948 7.53799 18.0138L4.112 19.726ZM9.21399 17.9249C9.19299 17.9169 9.17099 17.9149 9.14999 17.9069V3.96084L14.786 6.07387C14.807 6.08187 14.829 6.08396 14.85 6.09096V20.038L9.21399 17.9249ZM20.25 17.185C20.25 17.662 19.985 18.0899 19.559 18.3029L16.35 19.9069V6.02895C16.387 6.01295 16.426 6.00496 16.462 5.98696L19.888 4.27383C19.995 4.21983 20.087 4.25681 20.131 4.28481C20.175 4.31281 20.25 4.37597 20.25 4.49697V17.185Z" fill="currentColor"/>
</svg>

<svg xmlns="http://www.w3.org/2000/svg" width="24" height="24" fill="none"><path fill="currentColor" d="M20.92 3.009a1.74 1.74 0 0 0-1.703-.077L15.79 4.645a.608.608 0 0 1-.479.025L9.213 2.383a2.1 2.1 0 0 0-1.676.088L3.769 4.355a2.735 2.735 0 0 0-1.52 2.46v12.688c0 .61.31 1.167.83 1.488a1.74 1.74 0 0 0 1.703.077l3.427-1.713a.608.608 0 0 1 .479-.025l6.098 2.287c.237.089.487.133.737.133.022 0 .043-.007.065-.007l.013.002c.017 0 .031-.008.047-.01.281-.017.559-.079.815-.207l3.768-1.884a2.735 2.735 0 0 0 1.52-2.46V4.496a1.74 1.74 0 0 0-.831-1.487ZM4.112 19.726a.244.244 0 0 1-.243-.011.243.243 0 0 1-.119-.212V6.815c0-.477.265-.905.691-1.118L7.65 4.093v13.88c-.037.016-.076.022-.112.04l-3.426 1.713Zm5.102-1.801c-.021-.008-.043-.01-.064-.018V3.96l5.636 2.113c.021.008.043.01.064.017v13.947l-5.636-2.113Zm11.036-.74c0 .477-.265.905-.691 1.118l-3.209 1.604V6.029c.037-.016.076-.024.112-.042l3.426-1.713a.242.242 0 0 1 .243.01.244.244 0 0 1 .119.213v12.688Z"/></svg>
